64x64/apps/retext.svg

<svg height="64" width="64" xmlns="http://www.w3.org/2000/svg"><path d="m57.2 8h-50.4c-1.551 0-2.8 1.338-2.8 3v42c0 1.662 1.249 3 2.8 3h50.4c1.551 0 2.8-1.338 2.8-3v-42c0-1.662-1.248-3-2.8-3z" fill="#f4f4f7"/><path d="m4 11c0-1.662 1.249-3 2.8-3h25.2v48h-25.2c-1.551 0-2.8-1.338-2.8-3z" opacity=".15"/><path d="m8 12h12v2h-12zm0 6h18v2h-18zm0 6h20v2h-20zm0 6h14v2h-14zm0 6h18v2h-18z" opacity=".6"/><path d="m36 14v36h6v-16l6 16h8v-6h-4l-4-10h8v-20zm6 6h8v8h-8z" fill="#c2352a"/><path d="m6.8 8c-1.55 0-2.8 1.338-2.8 3v1c0-1.662 1.25-3 2.8-3h50.4c1.55 0 2.8 1.338 2.8 3v-1c0-1.662-1.25-3-2.8-3z" fill="#f4f4f7" opacity=".2"/><path d="m4 53v1c0 1.662 1.25 3 2.8 3h50.4c1.55 0 2.8-1.338 2.8-3v-1c0 1.662-1.25 3-2.8 3h-50.4c-1.55 0-2.8-1.338-2.8-3z" opacity=".2"/></svg>

<svg xmlns="http://www.w3.org/2000/svg" width="64" height="64" version="1"><path style="fill:#f4f4f7" d="M57.2 8H6.8C5.249 8 4 9.338 4 11v42c0 1.662 1.249 3 2.8 3h50.4c1.551 0 2.8-1.338 2.8-3V11c0-1.662-1.248-3-2.8-3z"/><path style="opacity:.15" d="M4 11c0-1.662 1.249-3 2.8-3H32v48H6.8C5.249 56 4 54.662 4 53z"/><path style="opacity:.6" d="M8 12h12v2H8zM8 18h18v2H8zM8 24h20v2H8zM8 30h14v2H8zM8 36h18v2H8z"/><path style="fill:#c2352a" d="M36 14v36h6V34l6 16h8v-6h-4l-4-10h8V14zm6 6h8v8h-8z"/><path style="opacity:.2;fill:#f4f4f7" d="M6.8 8C5.25 8 4 9.338 4 11v1c0-1.662 1.25-3 2.8-3h50.4c1.55 0 2.8 1.338 2.8 3v-1c0-1.662-1.25-3-2.8-3H6.8z"/><path style="opacity:.2" d="M4 53v1c0 1.662 1.25 3 2.8 3h50.4c1.55 0 2.8-1.338 2.8-3v-1c0 1.662-1.25 3-2.8 3H6.8C5.25 56 4 54.662 4 53z"/></svg>
